odyssey2/_inc/system2.svg

<svg xmlns="http://www.w3.org/2000/svg"><g fill="#fff"><path d="m77.616 26.761c-10.166-13.751-12.591-12.344-18.495-12.344h-25.941-28.914c-4.422 0-5.404 3.31-2.955 6.6 1.379 1.867 4.34 4.886 6.708 7.238l57.241 57.41h56.422c-12.856-16.995-27.459-36.442-44.066-58.904zm8.203 44.831c-1.72.024-4.546.087-6.242.06-1.919-.03-2.464-.464-3.66-1.792l-26.17-29.125c-1.178-1.311-1.039-2.802 1.136-2.805l8.054-.006c1.085-.003 1.606.109 3.609 2.534l23.562 28.474c1.334 1.612.446 2.651-.289 2.66z"/><path d="m83.49 14.426h28.906 18.079c5.898 0 11.606-2.051 18.48 12.329l28.164 58.913h-49.84l-26.212-36.24c-1.082-1.494-1.226-1.69-1.895-2.825-.585-.991.15-2.112 1.714-2.208 6.365-.061 12.726-.124 19.088-.184 3.127.057 4.226.093 5.98 3.003 5.021 7.443 9.515 15.146 14.537 22.589.997 1.843 2.455 1.919 5.467 1.955 3.482.042 5.563-.38 3.425-3.952l-16.513-27.586c-2.485-4.148-9.805-3.449-10.89-3.449h-24.682c-2.913 0-5.133.174-6.961-2.217l-9.823-13.543c-2.401-3.311-1.449-6.585 2.976-6.585z"/><path d="m155.838 14.426h23.14c1.196.114 1.87.491 2.03 1.13 3.446 8.56 6.052 17.121 9.501 25.682.638 1.651 1.217 2.392 2.117 2.223 1.919.012 3.506.024 5.425.036 1.753-.069 2.238-1.051 1.651-2.946-2.235-8.139-4.714-15.793-6.952-23.932-.6-2.009.62-2.196 2.693-2.196h15.844c7.931 0 9.211-1.157 12.166 12.329 2.332 10.645 4.465 21.293 6.796 31.939.551 3.524-.88 6.38-4.765 6.277l-7.41-.027 5.66 20.724h-27.448l-8.332-20.673c-3.205.003-4.886.003-8.091.003-4.828-.033-7.22-3.175-9.217-7.458l-17.359-36.526c-1.579-3.32-1.871-6.585 2.551-6.585z"/><path d="m235.409 14.426h30.417 25.818c5.895 0 10.145-.596 9.438 8.097l-.651 8.042c-.109 1.32-.226 2.498-.566 3.745-.741 2.72-3.275 3.129-6.094 3.172h-31.873c-1.445 0-1.927.084-1.93 1.075l-.03 4.943c-.006 1.124.783.973 2.575.973h24.375c1.786 0 3.524-.084 5.277.337 3.269.783 5.031 2.705 5.937 5.166.754 2.052.443 3.744.272 5.883l-2.422 29.806h-54.735l-1.736-9.952c-.301-1.732.232-2.82 2.335-2.82h28.851c5.006-.723 5.172-4.181 4.666-8.036h-30.782c-3.154.141-5.184-.826-6.536-2.383-1.254-1.443-1.326-2.774-1.642-4.594l-6.055-34.761c-.888-5.102.672-8.693 5.091-8.693z"/><path d="m317.049 14.426h28.544 25.14c5.742 0 9.989-.584 7.203 7.883l-2.826 8.57c-.428 1.283-.831 2.431-1.467 3.645-1.388 2.647-3.952 3.045-6.711 3.087h-28.399c-1.407 0-1.886.081-2.145 1.045l-1.452 5.446c-.289 1.091.524.946 2.268.946h21.104c1.732 0 3.446-.078 5.048.329 2.986.762 4.236 2.632 4.513 5.03.229 2-.485 3.645-1.178 5.729l-10.525 29.529h-52.461l1.142-9.606c.132-1.687.913-2.744 2.967-2.741h21.712c5.049-.708 6.064-4.075 6.516-7.829h-19.613c-7.055.317-10.359-4.346-9.898-10.549l2.358-32.053c.368-4.967 3.856-8.464 8.16-8.464z"/><path d="m396.138 14.426h30.141 26.538c6.063 0 10.708-.584 5.473 7.883l-5.305 8.57c-.798 1.283-1.536 2.431-2.533 3.645-2.19 2.647-5.006 3.045-7.928 3.087h-22.643c-1.488 0-3.431-.138-3.389.699l.226 4.518c.048.949 1.03 1.684 2.874 1.684h12.347l8.639.06c1.901.012 2.69 1.744 1.795 3.238l-3.422 5.73-8.018 12.389c-.341.018-.678.027-1.021.033h-24.204c-1.545 0-3.575-.141-3.515.934l.235 4.283c.057.946 1.069 1.681 2.979 1.681h13.522l7.482.051-8.253 12.754h-54.961c5.28-13.308 5.081-14.151 22.031-62.775 1.735-4.967 6.365-8.464 10.91-8.464z"/><path d="m545.47 14.426c-8.254 0-17.155 0-25.405 0-1.362.114-2.269.491-2.705 1.13-7.407 8.56-13.893 17.121-21.3 25.682-1.404 1.651-2.346 2.392-3.262 2.223-2.115.012-3.862.024-5.976.036-1.895-.069-2.006-1.051-.564-2.946 5.901-8.139 11.86-15.793 17.761-23.932 1.509-2.009.253-2.196-2.028-2.196h-19.173c-8.699 0-9.618-1.157-18.57 12.329-7.064 10.645-13.913 21.293-20.977 31.939-2.1 3.524-1.735 6.38 2.575 6.277l9.926-.027-14.986 20.724h30.134l17.899-20.673c3.518.003 5.365.003 8.88.003 5.316-.033 9.274-3.175 13.278-7.458l34.52-36.529c3.127-3.317 4.829-6.582-.027-6.582z"/><path d="m584.367 28.845c-1.642 1.534-3.244 3.118-4.853 4.688-1.28 1.253-2.259.978-4.063.978h-26.478c-1.578 0-2.636-.096-3.208-.548-.837-.659-.648-1.882.44-2.979 4.111-4.365 8.229-8.729 12.341-13.094 1.964-1.807 3.795-3.663 7.54-4.877 2.289-.744 4.316-.916 6.687-.916h10.907c2.693.251 5.169-5.039 2.295-6.045h-17.862c-2.35.169-3.019-.669-2.012-2.518 1.936-2.259 3.072-3.642 4.03-3.528h20.721c2.094 0 5.082.22 6.793 1.642 3.662 3.036 2.551 8.684.069 12.338-2.148 3.148-6.94 5.338-10.585 5.461h-14.245c-3.479.253-8.009 7.425-1.738 7.507h12.492c1.795.003 1.84.852.729 1.891"/></g><path d="m117.604 80.27c16.254 21.484 33.788 44.452 44.942 59.221 12.483 16.54 22.902 30.36 31.716 42.035h-33.433c-9.784-9.813-21.004-21.064-33.975-34.077l-66.974-67.179zm357.422.651-30.339-.651-73.219 101.259h16.444zm-109.73-.651c-4.446 11.188-14.862 36.593-40.541 101.256h31.366l64.7-99.976zm-7.886 1.907-53.322.268-11.778 99.081h29.707zm-61.223.587-55.374.594 17.094 98.171h30.249zm-73.466-.807h-27.929l40.144 99.569h14.977l-26.182-95.858zm-48.183-1.687h-51.163l73.239 101.256h26.336l-45.828-95.858" fill="#ccc"/></svg>

<?xml version="1.0" encoding="utf-8"?>
<svg version="1.1" xmlns="http://www.w3.org/2000/svg">
  <g>
    <path style="fill-opacity: 1; fill: rgb(255, 255, 255);" id="path7" d="M 77.616 26.761 C 67.45 13.01 65.025 14.417 59.121 14.417 L 33.18 14.417 L 4.266 14.417 C -0.156 14.417 -1.138 17.727 1.311 21.017 C 2.69 22.884 5.651 25.903 8.019 28.255 L 65.26 85.665 L 121.682 85.665 C 108.826 68.67 94.223 49.223 77.616 26.761 Z M 85.819 71.592 C 84.099 71.616 81.273 71.679 79.577 71.652 C 77.658 71.622 77.113 71.188 75.917 69.86 L 49.747 40.735 C 48.569 39.424 48.708 37.933 50.883 37.93 L 58.937 37.924 C 60.022 37.921 60.543 38.033 62.546 40.458 L 86.108 68.932 C 87.442 70.544 86.554 71.583 85.819 71.592 Z"/>
    <path style="fill-opacity: 1; fill: rgb(255, 255, 255);" id="path9" d="M 83.49 14.426 L 112.396 14.426 L 130.475 14.426 C 136.373 14.426 142.081 12.375 148.955 26.755 L 177.119 85.668 L 127.279 85.668 L 101.067 49.428 C 99.985 47.934 99.841 47.738 99.172 46.603 C 98.587 45.612 99.322 44.491 100.886 44.395 C 107.251 44.334 113.612 44.271 119.974 44.211 C 123.101 44.268 124.2 44.304 125.954 47.214 C 130.975 54.657 135.469 62.36 140.491 69.803 C 141.488 71.646 142.946 71.722 145.958 71.758 C 149.44 71.8 151.521 71.378 149.383 67.806 L 132.87 40.22 C 130.385 36.072 123.065 36.771 121.98 36.771 L 97.298 36.771 C 94.385 36.771 92.165 36.945 90.337 34.554 L 80.514 21.011 C 78.113 17.7 79.065 14.426 83.49 14.426 L 83.49 14.426 Z"/>
    <path style="fill-opacity: 1; fill: rgb(255, 255, 255);" id="path11" d="M 155.838 14.426 C 163.356 14.426 171.462 14.426 178.978 14.426 C 180.174 14.54 180.848 14.917 181.008 15.556 C 184.454 24.116 187.06 32.677 190.509 41.238 C 191.147 42.889 191.726 43.63 192.626 43.461 C 194.545 43.473 196.132 43.485 198.051 43.497 C 199.804 43.428 200.289 42.446 199.702 40.551 C 197.467 32.412 194.988 24.758 192.75 16.619 C 192.15 14.61 193.37 14.423 195.443 14.423 L 211.287 14.423 C 219.218 14.423 220.498 13.266 223.453 26.752 C 225.785 37.397 227.918 48.045 230.249 58.691 C 230.8 62.215 229.369 65.071 225.484 64.968 L 218.074 64.941 L 223.734 85.665 L 196.286 85.665 L 187.954 64.992 C 184.749 64.995 183.068 64.995 179.863 64.995 C 175.035 64.962 172.643 61.82 170.646 57.537 L 153.287 21.011 C 151.708 17.691 151.416 14.426 155.838 14.426 L 155.838 14.426 Z"/>
    <path style="fill-opacity: 1; fill: rgb(255, 255, 255);" id="path13" d="M 235.409 14.426 L 265.826 14.426 L 291.644 14.426 C 297.539 14.426 301.789 13.83 301.082 22.523 L 300.431 30.565 C 300.322 31.885 300.205 33.063 299.865 34.31 C 299.124 37.03 296.59 37.439 293.771 37.482 L 261.898 37.482 C 260.453 37.482 259.971 37.566 259.968 38.557 L 259.938 43.5 C 259.932 44.624 260.721 44.473 262.513 44.473 L 286.888 44.473 C 288.674 44.473 290.412 44.389 292.165 44.81 C 295.434 45.593 297.196 47.515 298.102 49.976 C 298.856 52.028 298.545 53.72 298.374 55.859 L 295.952 85.665 L 241.217 85.665 L 239.481 75.713 C 239.18 73.981 239.713 72.893 241.816 72.893 L 270.667 72.893 C 275.673 72.17 275.839 68.712 275.333 64.857 L 244.551 64.857 C 241.397 64.998 239.367 64.031 238.015 62.474 C 236.761 61.031 236.689 59.7 236.373 57.88 L 230.318 23.119 C 229.43 18.017 230.99 14.426 235.409 14.426 L 235.409 14.426 Z"/>
    <path style="fill-opacity: 1; fill: rgb(255, 255, 255);" id="path15" d="M 317.049 14.426 L 345.593 14.426 L 370.733 14.426 C 376.475 14.426 380.722 13.842 377.936 22.309 L 375.11 30.879 C 374.682 32.162 374.279 33.31 373.643 34.524 C 372.255 37.171 369.691 37.569 366.932 37.611 L 338.533 37.611 C 337.126 37.611 336.647 37.692 336.388 38.656 L 334.936 44.102 C 334.647 45.193 335.46 45.048 337.204 45.048 L 358.308 45.048 C 360.04 45.048 361.754 44.97 363.356 45.377 C 366.342 46.139 367.592 48.009 367.869 50.407 C 368.098 52.407 367.384 54.052 366.691 56.136 L 356.166 85.665 L 303.705 85.665 L 304.847 76.059 C 304.979 74.372 305.76 73.315 307.814 73.318 L 329.526 73.318 C 334.575 72.61 335.59 69.243 336.042 65.489 L 316.429 65.489 C 309.374 65.806 306.07 61.143 306.531 54.94 L 308.889 22.887 C 309.257 17.92 312.745 14.423 317.049 14.423 L 317.049 14.423 L 317.049 14.426 L 317.049 14.426 Z"/>
    <path style="fill-opacity: 1; fill: rgb(255, 255, 255);" id="path17" d="M 396.138 14.426 L 426.279 14.426 L 452.817 14.426 C 458.88 14.426 463.525 13.842 458.29 22.309 L 452.985 30.879 C 452.187 32.162 451.449 33.31 450.452 34.524 C 448.262 37.171 445.446 37.569 442.524 37.611 L 419.881 37.611 C 418.393 37.611 416.45 37.473 416.492 38.31 L 416.718 42.828 C 416.766 43.777 417.748 44.512 419.592 44.512 L 431.939 44.512 L 440.578 44.572 C 442.479 44.584 443.268 46.316 442.373 47.81 L 438.951 53.54 L 430.933 65.929 C 430.592 65.947 430.255 65.956 429.912 65.962 L 405.708 65.962 C 404.163 65.962 402.133 65.821 402.193 66.896 L 402.428 71.179 C 402.485 72.125 403.497 72.86 405.407 72.86 L 418.929 72.86 L 426.411 72.911 L 418.158 85.665 L 363.197 85.665 C 368.477 72.357 368.278 71.514 385.228 22.89 C 386.963 17.923 391.593 14.426 396.138 14.426 L 396.138 14.426 Z"/>
    <path style="fill-opacity: 1; fill: rgb(255, 255, 255);" id="path19" d="M 545.47 14.426 C 537.216 14.426 528.315 14.426 520.065 14.426 C 518.703 14.54 517.796 14.917 517.36 15.556 C 509.953 24.116 503.467 32.677 496.06 41.238 C 494.656 42.889 493.714 43.63 492.798 43.461 C 490.683 43.473 488.936 43.485 486.822 43.497 C 484.927 43.428 484.816 42.446 486.258 40.551 C 492.159 32.412 498.118 24.758 504.019 16.619 C 505.528 14.61 504.272 14.423 501.991 14.423 L 482.818 14.423 C 474.119 14.423 473.2 13.266 464.248 26.752 C 457.184 37.397 450.335 48.045 443.271 58.691 C 441.171 62.215 441.536 65.071 445.846 64.968 L 455.772 64.941 L 440.786 85.665 L 470.92 85.665 L 488.819 64.992 C 492.337 64.995 494.184 64.995 497.699 64.995 C 503.015 64.962 506.973 61.82 510.977 57.537 L 545.497 21.008 C 548.624 17.691 550.326 14.426 545.47 14.426 L 545.47 14.426 Z"/>
    <path style="fill-opacity: 1; fill: rgb(255, 255, 255);" id="path21" d="M 584.367 28.845 C 582.725 30.379 581.123 31.963 579.514 33.533 C 578.234 34.786 577.255 34.511 575.451 34.511 L 548.973 34.511 C 547.395 34.511 546.337 34.415 545.765 33.963 C 544.928 33.304 545.117 32.081 546.205 30.984 C 550.316 26.619 554.434 22.255 558.546 17.89 C 560.51 16.083 562.341 14.227 566.086 13.013 C 568.375 12.269 570.402 12.097 572.773 12.097 L 583.68 12.097 C 586.373 12.348 588.849 7.058 585.975 6.052 L 568.113 6.052 C 565.763 6.221 565.094 5.383 566.101 3.534 C 568.037 1.275 569.173 -0.108 570.131 0.006 L 590.852 0.006 C 592.946 0.006 595.934 0.226 597.645 1.648 C 601.307 4.684 600.196 10.332 597.714 13.986 C 595.566 17.134 590.774 19.324 587.129 19.447 L 572.884 19.447 C 569.405 19.7 564.875 26.872 571.146 26.954 L 583.638 26.954 C 585.433 26.957 585.478 27.806 584.367 28.845"/>
    <path style="fill-opacity: 1; fill: rgb(204, 204, 204);" id="path28" d="M 117.604 80.27 C 133.858 101.754 151.392 124.722 162.546 139.491 C 175.029 156.031 185.448 169.851 194.262 181.526 L 160.829 181.526 C 151.045 171.713 139.825 160.462 126.854 147.449 L 59.88 80.27 L 117.604 80.27 Z M 475.026 80.921 L 444.687 80.27 L 371.468 181.529 L 387.912 181.529 L 475.026 80.921 Z M 365.296 80.27 C 360.85 91.458 350.434 116.863 324.755 181.526 L 356.121 181.526 L 420.821 81.55 L 365.296 80.27 Z M 357.41 82.177 L 304.088 82.445 L 292.31 181.526 L 322.017 181.526 L 357.41 82.177 Z M 296.187 82.764 L 240.813 83.358 L 257.907 181.529 L 288.156 181.529 L 296.187 82.764 Z M 222.721 81.957 L 194.792 81.957 L 234.936 181.526 L 249.913 181.526 L 223.731 85.668 L 222.721 81.957 Z M 174.538 80.27 L 123.375 80.27 L 196.614 181.526 L 222.95 181.526 L 177.122 85.668"/>
  </g>
</svg>
